icon-svg/upstairs-1.svg

<svg xmlns="http://www.w3.org/2000/svg" viewBox="0 0 24 24"><path fill="#44739e" d="M15.732 14.949v-8.12h-.967l-2.029.917.174.578 1.639-.733h.15l.031.15v7.208ZM14.22 4.014 12.2 3 7.384 5.992l2.048 1.235Zm-1.007 13.072-.106-.068L8.1 13.846l-1.081.605 5.281 3.216ZM10.53 8.407l4.883-3.278-1.013-.507-4.809 3.245ZM6.261 7.2l.987-.572L4.292 5.34l-.118 3.067 1.072-.621 2.307 2.969L2 14.491l.872 1.032 6.6-4.462Zm8.026 8.6-5-3.167-1.02.567 5.164 3.144Zm-2.194 2.631-5.257-3.309-3.124 1.543 5.079 3.588Zm-.578-8.031.092-.061.01-.007 2.812 1.614v-.489L10.5 9.127V9.11l-.029-.01.375-.243 1.589-1.066-.062-.206 1.094-.487 2.082-1.4-.034-.018.021-.487-5.014 3.381-1.116-.65V7.91l-.056-.034.114-.083 4.856-3.259.021-.46-4.916 3.317-2.168-1.345.1.644v.013l.024.014 1.05 1.142v.014l.023.014 1.071 1.157v.015l.023.014 1.455 1.582-.394.22 3.82 2.325v-1.1Zm2.914.884V7.961l-1.708.779-.243-.809L10.727 9.1Zm1.6-4.754v5.7l.616.364L21.872 9l.128.064-6.288-3.283-1.424.946.444-.2Zm-5.525 4.934-1.037.579 4.958 3.018v-1.116Zm6.133 1.305-.608-.36v.459l.544.312.132.071-.14.093h-.006l-.53.361v1.545h-1.5l-.026.017-.028-.017h-.052v-.032L9.35 12.11l.041.452 5.051 3.144.135.079-.025.018-.052.033-.073.053h-.005l-.977.628-5.3-3.246.044.491 5.063 3.151.135.079.106.065v.028l-1.177.757-4.907-3-.52-.319.046.516 5.331 3.3.093.057h.008l-.145.083-3.431 1.953-5.213-3.7v.541L8.791 21l3.787-2.232.616-.363.57-.334 1.936-2.366.009-.006 1-1.223 2.252-2.753 3.012-2.134.027-.525ZM10.5 10.94l.036.4 3.9 2.426v-.414Zm5.942 2.332-.4-.236v.522l.427-.272Zm-1.933 1.996.026-.017h-.054Z"/></svg>

<?xml version="1.0" encoding="UTF-8"?>
<svg width="24px" fill="#44739e" height="24px" viewBox="0 0 24 24" version="1.1" xmlns="http://www.w3.org/2000/svg" xmlns:xlink="http://www.w3.org/1999/xlink">
            <path d="m 15.732,14.949 v -8.12 h -0.967 l -2.029,0.917 0.174,0.578 1.639,-0.733 h 0.15 l 0.031,0.15 v 7.208 z M 14.22,4.014 12.2,3 7.384,5.992 9.432,7.227 Z M 13.213,17.086 13.107,17.018 8.1,13.846 7.019,14.451 12.3,17.667 Z M 10.53,8.407 15.413,5.129 14.4,4.622 9.591,7.867 Z M 6.261,7.2 7.248,6.628 4.292,5.34 4.174,8.407 5.246,7.786 7.553,10.755 2,14.491 l 0.872,1.032 6.6,-4.462 z m 8.026,8.6 -5,-3.167 -1.02,0.567 5.164,3.144 z m -2.194,2.631 -5.257,-3.309 -3.124,1.543 5.079,3.588 z m -0.578,-8.031 0.092,-0.061 0.01,-0.007 2.812,1.614 V 11.457 L 10.5,9.127 V 9.11 L 10.471,9.1 10.846,8.857 12.435,7.791 12.373,7.585 13.467,7.098 15.549,5.698 15.515,5.68 15.536,5.193 10.522,8.574 9.406,7.924 V 7.91 L 9.35,7.876 9.464,7.793 14.32,4.534 14.341,4.074 9.425,7.391 7.257,6.046 7.357,6.69 v 0 0 0.013 l 0.024,0.014 1.05,1.142 v 0.014 l 0.023,0.014 1.071,1.157 v 0.015 l 0.023,0.014 1.455,1.582 -0.394,0.22 3.82,2.325 v -1.1 z m 2.914,0.884 V 7.961 L 12.721,8.74 12.478,7.931 10.727,9.1 Z m 1.6,-4.754 v 5.7 L 16.645,12.594 21.872,9 22,9.064 15.712,5.781 l -1.424,0.946 0.444,-0.2 z m -5.525,4.934 -1.037,0.579 4.958,3.018 v -1.116 z m 6.133,1.305 -0.608,-0.36 v 0.459 l 0.544,0.312 0.132,0.071 -0.14,0.093 h -0.006 l -0.53,0.361 v 1.545 h -1.5 L 14.503,15.267 14.475,15.25 H 14.423 V 15.218 L 9.35,12.11 l 0.041,0.452 5.051,3.144 0.135,0.079 -0.025,0.018 v 0 l -0.052,0.033 -0.073,0.053 h -0.005 l -0.977,0.628 -5.3,-3.246 0.044,0.491 5.063,3.151 0.135,0.079 v 0 l 0.106,0.065 v 0.028 l -1.177,0.757 -4.907,-3 -0.52,-0.319 0.046,0.516 5.331,3.3 v 0 l 0.093,0.057 v 0 h 0.008 l -0.145,0.083 v 0 l -3.431,1.953 -5.213,-3.7 v 0.541 L 8.791,21 l 3.787,-2.232 0.616,-0.363 0.57,-0.334 1.936,-2.366 0.009,-0.006 v 0 l 1,-1.223 v 0 L 18.961,11.723 21.973,9.589 22,9.064 Z M 10.5,10.94 l 0.036,0.4 3.9,2.426 v -0.414 z m 5.942,2.332 -0.4,-0.236 v 0.522 l 0.427,-0.272 z M 9.35,12.11 v 0 m 5.159,3.158 0.026,-0.017 h -0.054 z"/>

</svg>
